src/assets/images/footer-logo.svg

<svg width="422" height="147" viewBox="0 0 422 147" fill="none" xmlns="http://www.w3.org/2000/svg">
<g clip-path="url(#clip0_118_13728)">
<path d="M74.2832 0H37.1416V36.7514H74.2832V0Z" fill="black"/>
<path d="M111.425 0H74.2832V36.7514H111.425V0Z" fill="black"/>
<path d="M37.1416 36.7461H0V73.4975H37.1416V36.7461Z" fill="black"/>
<path d="M37.1416 0H0V36.7514H37.1416V0Z" fill="black"/>
<path d="M74.2832 73.5059H37.1416V110.257H74.2832V73.5059Z" fill="black"/>
<path d="M37.1416 110.252H0V147.003H37.1416V110.252Z" fill="black"/>
<path d="M172.894 59.0266V16.1895H201.846V20.3458H177.484V36.6516H200.876V40.8741H177.484V59.0321H172.894V59.0266Z" fill="black"/>
<path d="M206.753 46.4395V27.4492H211.405V45.8001C211.405 52.641 214.185 55.6453 220.452 55.6453C226.335 55.6453 230.34 52.5749 230.34 45.1607V27.4492H234.931V59.0354H230.73V52.0677H230.535C229.243 55.7115 225.622 59.6749 218.97 59.6749C210.636 59.6749 206.759 53.9861 206.759 46.4395H206.753Z" fill="black"/>
<path d="M244.359 50.0917V31.421H238.994V27.4576H244.42L245.518 19.3984H249.005V27.4576H259.089V31.421H249.005V50.3507C249.005 54.0606 250.749 54.893 254.888 54.893H259.089V58.6028C257.991 58.7958 255.986 59.1155 253.662 59.1155C247.78 59.1155 244.359 56.8113 244.359 50.0972V50.0917Z" fill="black"/>
<path d="M263.542 46.4395V27.4492H268.194V45.8001C268.194 52.641 270.974 55.6453 277.241 55.6453C283.124 55.6453 287.129 52.5749 287.129 45.1607V27.4492H291.72V59.0354H287.519V52.0677H287.324C286.032 55.7115 282.411 59.6749 275.759 59.6749C267.425 59.6749 263.548 53.9861 263.548 46.4395H263.542Z" fill="black"/>
<path d="M299.036 59.0186V27.0465H303.237V32.355H303.56C304.596 29.4114 307.693 26.793 312.412 26.793C319.002 26.793 321.526 31.462 321.526 36.8973V38.6888H316.874V37.6028C316.874 32.6802 315.326 30.7619 310.735 30.7619C305.76 30.7619 303.693 33 303.693 38.1155V59.0241H299.042L299.036 59.0186Z" fill="black"/>
<path d="M324.936 43.2255C324.936 33.6339 330.685 26.793 339.799 26.793C347.487 26.793 353.821 31.3959 353.821 40.7339C353.821 42.2057 353.693 43.6114 353.498 44.5044H329.331C329.526 51.4721 332.306 55.5679 339.927 55.5679C346.389 55.5679 348.974 52.6904 348.974 48.8537V48.4678H353.565V48.9144C353.565 54.9891 348.005 59.6581 339.866 59.6581C330.044 59.6581 324.936 52.8172 324.936 43.2255ZM329.331 41.1804H349.425C349.682 33.7 345.938 30.7564 339.665 30.7564C332.557 30.7564 329.715 34.786 329.325 41.1804H329.331Z" fill="black"/>
<path d="M370.75 43.2255C370.75 33.6339 376.889 26.793 386.26 26.793C395.63 26.793 401.513 33.6339 401.513 43.2255C401.513 52.8172 395.569 59.6581 386.26 59.6581C376.95 59.6581 370.75 52.8172 370.75 43.2255ZM396.989 43.2255C396.989 35.3593 393.953 30.9493 386.26 30.9493C378.566 30.9493 375.34 35.3593 375.34 43.2255C375.34 51.0918 378.443 55.5679 386.26 55.5679C394.076 55.5679 396.989 51.0918 396.989 43.2255Z" fill="black"/>
<path d="M408.423 59.0266V31.4038H403.704V27.4403H408.423V26.2276C408.423 19.7064 412.105 16.1895 419.152 16.1895H421.994V19.96H418.311C414.629 19.96 412.946 21.4924 412.946 24.6896V27.4403H421.994V31.4038H413.013V59.0266H408.423Z" fill="black"/>
<path d="M171.913 114.953V113.994H176.504V114.7C176.504 120.648 179.668 124.358 189.3 124.358C196.475 124.358 199.835 121.993 199.835 117.07C199.835 112.148 197.64 110.483 191.111 109.077L183.612 107.412C176.827 106.007 172.175 102.936 172.175 96.0292C172.175 89.8277 177.345 84.4531 187.618 84.4531C198.86 84.4531 203.773 91.2334 203.773 98.2011V99.0335H199.183V98.3279C199.183 92.4461 196.08 88.6701 187.551 88.6701C180.375 88.6701 176.821 91.035 176.821 95.704C176.821 100.373 179.211 101.972 185.545 103.443L193.044 105.169C200.219 106.767 204.481 110.091 204.481 116.806C204.481 123.52 199.378 128.569 189.166 128.569C177.144 128.569 171.913 122.301 171.913 114.948V114.953Z" fill="black"/>
<path d="M210.495 139.066V96.3504H214.696V102.491H214.891C216.311 98.4616 220.127 95.7109 226.133 95.7109C235.113 95.7109 240.094 102.172 240.094 112.21C240.094 122.248 235.375 128.582 226.651 128.582C220.512 128.582 216.567 125.384 215.147 121.934V139.072H210.495V139.066ZM225.358 124.613C231.564 124.613 235.442 121.801 235.442 112.21C235.442 102.618 231.631 99.6744 225.358 99.6744C219.086 99.6744 215.147 102.938 215.147 109.459V114.894C215.147 121.355 219.024 124.613 225.358 124.613Z" fill="black"/>
<path d="M244.741 112.143C244.741 102.552 250.88 95.7109 260.251 95.7109C269.621 95.7109 275.504 102.552 275.504 112.143C275.504 121.735 269.56 128.576 260.251 128.576C250.942 128.576 244.741 121.735 244.741 112.143ZM270.98 112.143C270.98 104.277 267.944 99.8673 260.251 99.8673C252.557 99.8673 249.332 104.277 249.332 112.143C249.332 120.01 252.435 124.486 260.251 124.486C268.067 124.486 270.98 120.01 270.98 112.143Z" fill="black"/>
<path d="M281.126 127.937V95.9645H285.326V101.273H285.65C286.686 98.3293 289.783 95.7109 294.502 95.7109C301.092 95.7109 303.616 100.38 303.616 105.815V107.607H298.964V106.521C298.964 101.598 297.415 99.6799 292.825 99.6799C287.85 99.6799 285.783 101.918 285.783 107.033V127.942H281.132L281.126 127.937Z" fill="black"/>
<path d="M311.5 118.992V100.321H306.135V96.358H311.561L312.658 88.2988H316.146V96.358H326.229V100.321H316.146V119.251C316.146 122.961 317.889 123.793 322.029 123.793H326.229V127.503C325.132 127.696 323.126 128.016 320.803 128.016C314.92 128.016 311.5 125.712 311.5 118.998V118.992Z" fill="black"/>
<path d="M329.465 117.573V117.446H333.988V118.213C333.988 122.562 335.799 124.673 343.036 124.673C348.98 124.673 350.534 123.008 350.534 119.811C350.534 116.614 348.529 115.462 343.682 114.569L338.384 113.676C333.214 112.717 329.465 110.352 329.465 104.79C329.465 99.2279 334.117 95.7109 341.676 95.7109C349.236 95.7109 354.345 99.4208 354.345 106.515V106.835H349.888V106.322C349.888 102.552 348.401 99.6744 341.554 99.6744C335.738 99.6744 333.927 101.527 333.927 104.724C333.927 107.921 335.543 109.007 340.323 109.905L345.749 110.931C351.309 111.956 354.991 114.382 354.991 119.629C354.991 125.258 350.339 128.582 342.969 128.582C334.245 128.582 329.465 124.938 329.465 117.584V117.573Z" fill="black"/>
<path d="M144.339 16.1895H141.766V129.558H144.339V16.1895Z" fill="black"/>
</g>
<defs>
<clipPath id="clip0_118_13728">
<rect width="422" height="147" fill="white"/>
</clipPath>
</defs>
</svg>

<svg xmlns="http://www.w3.org/2000/svg" width="422" height="147" fill="none" viewBox="0 0 422 147"><g fill="#000" clip-path="url(#a)"><path d="M74.283 0H37.142v36.751h37.141zm37.142 0H74.283v36.751h37.142zM37.142 36.746H0v36.752h37.142z"/><path d="M37.142 0H0v36.751h37.142zm37.141 73.506H37.142v36.751h37.141zm-37.141 36.746H0v36.751h37.142zm135.752-51.225V16.189h28.952v4.157h-24.362v16.306h23.392v4.222h-23.392v18.158h-4.59zm33.859-12.587V27.45h4.652V45.8c0 6.841 2.78 9.845 9.047 9.845 5.883 0 9.888-3.07 9.888-10.484V27.449h4.591v31.586h-4.201v-6.967h-.195c-1.292 3.644-4.913 7.607-11.565 7.607-8.334 0-12.211-5.689-12.211-13.235zm37.606 3.652V31.42h-5.365v-3.963h5.426l1.098-8.06h3.487v8.06h10.084v3.963h-10.084v18.93c0 3.71 1.744 4.542 5.883 4.542h4.201v3.71c-1.098.193-3.103.512-5.427.512-5.882 0-9.303-2.304-9.303-9.018zm19.183-3.652V27.45h4.652V45.8c0 6.841 2.78 9.845 9.047 9.845 5.883 0 9.888-3.07 9.888-10.484V27.449h4.591v31.586h-4.201v-6.967h-.195c-1.292 3.644-4.913 7.607-11.565 7.607-8.334 0-12.211-5.689-12.211-13.235zm35.494 12.579V27.047h4.201v5.308h.323c1.036-2.944 4.133-5.562 8.852-5.562 6.59 0 9.114 4.669 9.114 10.104v1.792h-4.652v-1.086c0-4.923-1.548-6.841-6.139-6.841-4.975 0-7.042 2.238-7.042 7.353v20.91h-4.651zm25.9-15.793c0-9.592 5.749-16.433 14.863-16.433 7.688 0 14.022 4.603 14.022 13.94 0 1.473-.128 2.878-.323 3.771h-24.167c.195 6.968 2.975 11.064 10.596 11.064 6.462 0 9.047-2.878 9.047-6.714v-.386h4.591v.446c0 6.075-5.56 10.744-13.699 10.744-9.822 0-14.93-6.84-14.93-16.433m4.395-2.046h20.094c.257-7.48-3.487-10.424-9.76-10.424-7.108 0-9.95 4.03-10.34 10.424zm41.419 2.047c0-9.592 6.139-16.433 15.51-16.433s15.253 6.84 15.253 16.432-5.944 16.433-15.253 16.433-15.51-6.84-15.51-16.433m26.239 0c0-7.867-3.036-12.277-10.729-12.277-7.694 0-10.92 4.41-10.92 12.276 0 7.867 3.103 12.343 10.92 12.343 7.816 0 10.729-4.476 10.729-12.343m11.434 15.803V31.404h-4.719V27.44h4.719v-1.212c0-6.522 3.682-10.039 10.729-10.039h2.842v3.771h-3.683c-3.682 0-5.365 1.532-5.365 4.73v2.75h9.048v3.964h-8.981v27.623zm-236.51 55.926v-.959h4.591v.706c0 5.948 3.164 9.658 12.796 9.658 7.175 0 10.535-2.365 10.535-7.288 0-4.922-2.195-6.587-8.724-7.993l-7.499-1.665c-6.785-1.405-11.437-4.476-11.437-11.383 0-6.201 5.17-11.576 15.443-11.576 11.242 0 16.155 6.78 16.155 13.748v.833h-4.59v-.706c0-5.882-3.103-9.658-11.632-9.658-7.176 0-10.73 2.365-10.73 7.034s2.39 6.268 8.724 7.739l7.499 1.726c7.175 1.598 11.437 4.922 11.437 11.637 0 6.714-5.103 11.763-15.315 11.763-12.022 0-17.253-6.268-17.253-13.621zm38.582 24.113V96.35h4.201v6.141h.195c1.42-4.03 5.236-6.78 11.242-6.78 8.98 0 13.961 6.461 13.961 16.499s-4.719 16.372-13.443 16.372c-6.139 0-10.084-3.198-11.504-6.648v17.138h-4.652zm14.863-14.453c6.206 0 10.084-2.812 10.084-12.403s-3.811-12.536-10.084-12.536-10.211 3.264-10.211 9.785v5.435c0 6.461 3.877 9.719 10.211 9.719m19.383-12.47c0-9.591 6.139-16.432 15.51-16.432s15.253 6.841 15.253 16.432c0 9.592-5.944 16.433-15.253 16.433s-15.51-6.841-15.51-16.433m26.239 0c0-7.866-3.036-12.276-10.729-12.276-7.694 0-10.919 4.41-10.919 12.276 0 7.867 3.103 12.343 10.919 12.343s10.729-4.476 10.729-12.343m10.146 15.794V95.965h4.2v5.308h.324c1.036-2.944 4.133-5.562 8.852-5.562 6.59 0 9.114 4.669 9.114 10.104v1.792h-4.652v-1.086c0-4.923-1.549-6.841-6.139-6.841-4.975 0-7.042 2.238-7.042 7.353v20.909h-4.651zm30.374-8.945v-18.671h-5.365v-3.963h5.426l1.097-8.06h3.488v8.06h10.083v3.963h-10.083v18.93c0 3.71 1.743 4.542 5.883 4.542h4.2v3.71c-1.097.193-3.103.513-5.426.513-5.883 0-9.303-2.304-9.303-9.018zm17.965-1.419v-.127h4.523v.767c0 4.349 1.811 6.46 9.048 6.46 5.944 0 7.498-1.665 7.498-4.862s-2.005-4.349-6.852-5.242l-5.298-.893c-5.17-.959-8.919-3.324-8.919-8.886s4.652-9.08 12.211-9.08 12.669 3.71 12.669 10.805v.32h-4.457v-.513c0-3.77-1.487-6.648-8.334-6.648-5.816 0-7.627 1.853-7.627 5.05s1.616 4.283 6.396 5.181l5.426 1.026c5.56 1.025 9.242 3.451 9.242 8.698 0 5.629-4.652 8.953-12.022 8.953-8.724 0-13.504-3.644-13.504-10.998zM144.339 16.19h-2.573v113.368h2.573z"/></g><defs><clipPath id="a"><path fill="#fff" d="M0 0h422v147H0z"/></clipPath></defs></svg>
